icons/List_2_filled.svg

<svg width="24" height="24" viewBox="0 0 24 24" fill="none" xmlns="http://www.w3.org/2000/svg">
<path fill-rule="evenodd" clip-rule="evenodd" d="M2.75,6c0,-0.69036 0.55964,-1.25 1.25,-1.25h16c0.6904,0 1.25,0.55964 1.25,1.25c0,0.69036 -0.5596,1.25 -1.25,1.25h-16c-0.69036,0 -1.25,-0.55964 -1.25,-1.25zM2.75,12c0,-0.6904 0.55964,-1.25 1.25,-1.25h16c0.6904,0 1.25,0.5596 1.25,1.25c0,0.6904 -0.5596,1.25 -1.25,1.25h-16c-0.69036,0 -1.25,-0.5596 -1.25,-1.25zM20,16.75c0.6904,0 1.25,0.5596 1.25,1.25c0,0.6904 -0.5596,1.25 -1.25,1.25h-16c-0.69036,0 -1.25,-0.5596 -1.25,-1.25c0,-0.6904 0.55964,-1.25 1.25,-1.25z" fill="#002B51"/>
</svg>

<svg width="24" height="24" viewBox="0 0 24 24" fill="none" xmlns="http://www.w3.org/2000/svg">
<path fill-rule="evenodd" clip-rule="evenodd" d="M2.75 6C2.75 5.30964 3.30964 4.75 4 4.75H20C20.6904 4.75 21.25 5.30964 21.25 6C21.25 6.69036 20.6904 7.25 20 7.25H4C3.30964 7.25 2.75 6.69036 2.75 6ZM2.75 12C2.75 11.3096 3.30964 10.75 4 10.75H20C20.6904 10.75 21.25 11.3096 21.25 12C21.25 12.6904 20.6904 13.25 20 13.25H4C3.30964 13.25 2.75 12.6904 2.75 12ZM4 16.75C3.30964 16.75 2.75 17.3096 2.75 18C2.75 18.6904 3.30964 19.25 4 19.25H20C20.6904 19.25 21.25 18.6904 21.25 18C21.25 17.3096 20.6904 16.75 20 16.75H4Z" fill="#002B51"/>
</svg>
